svg/dining_room.svg

<svg xmlns="http://www.w3.org/2000/svg" viewBox="0 0 32 32" enable-background="new 0 0 32 32"><path d="M 22.40625 4 L 17.78125 8.59375 C 16.627697 9.7473034 16.627697 11.658947 17.78125 12.8125 L 16 14.5625 L 14.71875 13.28125 L 7.21875 5.78125 L 6.5 5.09375 L 5.78125 5.78125 C 4.0108607 7.5516393 4.0108607 10.448361 5.78125 12.21875 L 12.0625 18.5 L 4.28125 26.28125 L 5.71875 27.71875 L 13.5 19.9375 L 14.6875 21.09375 L 15.40625 21.8125 L 16.09375 21.09375 L 17.875 19.3125 L 26.28125 27.71875 L 27.71875 26.28125 L 18.59375 17.1875 L 17.4375 16 L 19.1875 14.21875 L 19.21875 14.21875 L 19.25 14.25 C 20.408243 15.351399 22.27026 15.35474 23.40625 14.21875 L 23.5 14.09375 L 28 9.59375 L 26.59375 8.1875 L 22 12.78125 C 21.565016 13.216234 21.063246 13.225147 20.625 12.8125 L 25.90625 7.5 L 24.5 6.09375 L 19.1875 11.375 C 18.774853 10.936754 18.783766 10.434984 19.21875 10 L 23.8125 5.40625 L 22.40625 4 z M 6.78125 8.21875 L 16.46875 17.90625 L 15.40625 18.96875 L 7.21875 10.78125 C 6.4780362 10.040536 6.4562078 9.1037986 6.78125 8.21875 z" color="#000" overflow="visible" enable-background="accumulate"/></svg>

<svg xmlns="http://www.w3.org/2000/svg" viewBox="0 0 32 32"><path style="text-indent:0;text-align:start;line-height:normal;text-transform:none;block-progression:tb;-inkscape-font-specification:Bitstream Vera Sans" d="M22.406 4L17.78 8.594c-1.152 1.153-1.152 3.065 0 4.22L16 14.56l-1.28-1.28-7.5-7.5-.72-.688-.72.687c-1.77 1.772-1.77 4.668 0 6.44l6.282 6.28-7.78 7.78 1.437 1.44 7.78-7.782 1.188 1.156.718.718.688-.718 1.78-1.782 8.407 8.407 1.44-1.44-9.126-9.093L17.437 16l1.75-1.78h.032l.03.03c1.158 1.1 3.02 1.105 4.156-.03l.094-.126 4.5-4.5-1.406-1.406L22 12.78c-.435.436-.937.445-1.375.033l5.28-5.313L24.5 6.094l-5.313 5.28c-.412-.437-.403-.94.032-1.374l4.593-4.594L22.405 4zM6.78 8.22l9.69 9.686-1.064 1.063-8.187-8.19c-.742-.74-.764-1.676-.44-2.56z" color="#000" overflow="visible" font-family="Bitstream Vera Sans"/></svg>
